dist/flags/l/776.svg

<svg width="32" height="24" fill="none" xmlns="http://www.w3.org/2000/svg">
  <mask id="a" maskUnits="userSpaceOnUse" x="0" y="0" width="32" height="24">
    <path fill="#fff" d="M0 0h32v24H0z"/>
  </mask>
  <g mask="url(#a)">
    <path fill-rule="evenodd" clip-rule="evenodd" d="M0 0v24h32V0H0z" fill="#E31D1C"/>
    <mask id="b" maskUnits="userSpaceOnUse" x="0" y="0" width="32" height="24">
      <path fill-rule="evenodd" clip-rule="evenodd" d="M0 0v24h32V0H0z" fill="#fff"/>
    </mask>
    <g mask="url(#b)">
      <path fill="#F7FCFF" d="M0 0h18v16H0z"/>
      <path fill-rule="evenodd" clip-rule="evenodd" d="M12 2H8v4H4v4h4v4h4v-4h4V6h-4V2z" fill="#E31D1C"/>
    </g>
  </g>
</svg>

<svg width="32" height="24" viewBox="0 0 32 24" fill="none" xmlns="http://www.w3.org/2000/svg">
<mask id="mask0" mask-type="alpha" maskUnits="userSpaceOnUse" x="0" y="0" width="32" height="24">
<rect width="32" height="24" fill="white"/>
</mask>
<g mask="url(#mask0)">
<path fill-rule="evenodd" clip-rule="evenodd" d="M0 0V24H32V0H0Z" fill="#E31D1C"/>
<mask id="mask1" mask-type="alpha" maskUnits="userSpaceOnUse" x="0" y="0" width="32" height="24">
<path fill-rule="evenodd" clip-rule="evenodd" d="M0 0V24H32V0H0Z" fill="white"/>
</mask>
<g mask="url(#mask1)">
<rect width="18" height="16" fill="#F7FCFF"/>
<path fill-rule="evenodd" clip-rule="evenodd" d="M12 2H8V6H4V10H8V14H12V10H16V6H12V2Z" fill="#E31D1C"/>
</g>
</g>
</svg>
